assets/svg/icons/duck.svg

<svg width="48" height="48" viewBox="0 0 48 48" fill="none" xmlns="http://www.w3.org/2000/svg">
    <path d="M32.3987 8.26328C34.3877 8.26328 35.9986 9.89067 35.9986 11.8948C35.9986 13.9012 34.3877 15.5263 32.3987 15.5263C30.4121 15.5263 28.7988 13.9012 28.7988 11.8948C28.7988 9.89067 30.4121 8.26328 32.3987 8.26328ZM28.7988 1.00024C25.6175 1.00024 22.5644 2.27581 20.3146 4.54554C18.0647 6.81753 16.8002 9.8952 16.8002 13.1066C16.8002 17.2216 18.8409 20.8531 21.9368 23.032C18.1435 23.3951 13.8731 24.2667 9.60046 26.4206C2.40069 30.0522 0 25.2109 0 25.2109C0 25.2109 2.40069 47 16.8002 47H31.1998C31.1998 47 43.1986 47 43.1986 34.8957C43.1986 27.6327 35.9988 25.2109 38.3995 20.3697C48 20.3697 48 11.8946 48 11.8946C45.5993 13.1066 42.6227 13.1066 40.8002 12.2577C40.3435 5.96386 35.1347 1.00024 28.7988 1.00024Z" fill="url(#paint0_radial_1718_46499)"/>
    <defs>
    <radialGradient id="paint0_radial_1718_46499" cx="0" cy="0" r="1" gradientUnits="userSpaceOnUse" gradientTransform="translate(4.38462 6.80306) rotate(41.5677) scale(57.9163 48.7654)">
    <stop stop-color="#1F2348" stop-opacity="0.1"/>
    <stop offset="1" stop-color="#1F2348" stop-opacity="0.4"/>
    </radialGradient>
    </defs>
    </svg>

<svg xmlns="http://www.w3.org/2000/svg" width="48" height="48" fill="none" viewBox="0 0 48 48">
  <path fill="url(#a)" d="M32.399 8.263c1.989 0 3.6 1.628 3.6 3.632 0 2.006-1.611 3.631-3.6 3.631-1.987 0-3.6-1.625-3.6-3.631 0-2.004 1.613-3.632 3.6-3.632ZM28.799 1a11.948 11.948 0 0 0-8.484 3.546 12.166 12.166 0 0 0-3.515 8.56c0 4.116 2.041 7.747 5.137 9.926-3.793.363-8.064 1.235-12.336 3.389C2.4 30.052 0 25.21 0 25.21S2.4 47 16.8 47h14.4s11.999 0 11.999-12.104c0-7.263-7.2-9.685-4.8-14.526C48 20.37 48 11.895 48 11.895c-2.4 1.212-5.377 1.212-7.2.363C40.344 5.964 35.135 1 28.8 1Z"/>
  <defs>
    <radialGradient id="a" cx="0" cy="0" r="1" gradientTransform="matrix(43.33137 38.42773 -32.35606 36.48492 4.385 6.803)" gradientUnits="userSpaceOnUse">
      <stop stop-color="#1F2348" stop-opacity=".1"/>
      <stop offset="1" stop-color="#1F2348" stop-opacity=".4"/>
    </radialGradient>
  </defs>
</svg>
